X:115
T: Old Torn Jacket
S: "Ag Deanamh Ceoil" (CCE)
Z: B.Black
L: 1/8
M: 6/8
R: jig
K: G
B2 AB GEDE|G2 BG dGBd|B2 AB GE D2|EA A2 EA A2|
B2 AB GEDE|G2 BG dGBd|B2 AB GEDG|EGGF G3 z :|
Bdef g2 ed|eaab aged| (3B^cd ef ge d2|eaag a3 z|
Bdef g2 ed|ea a2 aged|B2 AB GEDG|EGGF G3 z :|

